X: 6
T: Three Sea Captains, The
Z: ceili
S: https://thesession.org/tunes/147#setting48198
R: jig
M: 6/8
L: 1/8
K: Gmaj
"G"GDG BGB|"D"c2 A F2 A|"G"GDG BGB|d2 B G2 B|
"C"cec A2 A|"G"BdB G3|"C"A2 B c2 B|AB/A/G "D"FED|
"G"GDG BGB|"D"c2 A F2 A|"G"GDG BGB|d2 B G2 B|
"C"cec A2 A|"G"dgd BGF|"C"EcB "D"AGF|"G"G3 G3||
"G"g2 g dcB|"C"AA/B/c "D"def|"G"g2g dBd|"C"ecA A3|
"G"g2 a bge|"D"f2 g afd|"C"e2 f "G"g2 f|"D"ed^c d3|
"C"c2 d ecA|"G"B2 c dBG|"C"A2 B c2 B|"D"ABG FED|
"G"GDG BGB|"D"c2 A F2 A|"G"GDG BGB|d2 B G2 B|
"C"cec A2 A|"G"dgd BGF|"C"EcB "D"AGF|"G"G3 G3||

